build/img/cla/logo_cla_footer.svg

<svg width="207" height="60" viewBox="0 0 207 60" fill="none"
    xmlns="http://www.w3.org/2000/svg">
    <path d="M115.225 36.4093H102.976C98.3988 36.4093 94.0913 34.5002 91.2646 31.5002C88.1686 28.5002 70.2656 1.09092 70.2656 1.09092C69.9964 0.681823 69.458 0.409094 68.9195 0.409094H60.17C59.497 0.409094 58.9585 0.681823 58.6893 1.22728C57.6124 2.72729 38.2288 29.0457 35.2674 31.9093C32.306 34.9093 28.1332 36.8184 23.5565 36.8184C16.2876 36.8184 10.4995 30.9548 10.4995 23.5911C10.4995 16.9092 15.6146 11.3183 22.0758 10.5001C22.8834 10.3637 23.5565 9.68188 23.5565 8.8637V1.77274C23.5565 0.818187 22.7488 0 21.8066 0C9.5572 0.954552 0 11.1819 0 23.5911C0 36.6821 10.4995 47.3185 23.5565 47.3185C31.0946 47.3185 38.3634 44.1821 42.6709 39.4094C46.4399 35.3184 59.6316 17.591 63.4006 12.4092C63.6698 12.1364 63.939 11.7274 64.3429 11.7274C64.7467 11.7274 65.1505 12.1364 65.4197 12.4092C68.7849 17.591 79.8228 34.773 83.5919 38.8639C88.034 43.6367 95.1682 46.773 102.706 46.773H114.686C114.821 46.773 114.956 46.773 115.09 46.773C116.033 46.773 116.84 45.9549 116.84 45.0003V38.1821C116.975 37.2275 116.167 36.4093 115.225 36.4093Z" fill="white"/>
    <path d="M177.418 0.273201H176.476C176.341 0.273201 176.206 0.409565 176.206 0.54593C176.206 1.90957 176.206 8.59143 176.206 8.59143V8.7278V8.86416C176.072 10.5005 175.264 11.5915 173.784 11.5915C172.707 11.5915 172.168 11.3187 171.361 10.3642L171.226 10.2278C171.091 10.0914 171.091 10.0914 170.957 9.95508C170.822 9.95508 170.822 9.95508 170.688 10.0914C170.553 10.0914 170.149 10.5005 170.014 10.6369C169.88 10.7733 169.88 10.7733 169.88 10.9096C169.88 10.9096 169.88 11.046 170.014 11.046C170.957 12.4096 172.168 13.0915 173.784 13.0915C174.86 13.0915 175.803 12.6824 176.61 12.0005C177.418 11.1824 177.822 10.0914 177.822 8.7278V0.682294C177.687 0.409565 177.553 0.273201 177.418 0.273201Z" fill="white"/>
    <path d="M165.17 8.31979H159.786L162.478 2.18339L165.17 8.31979ZM166.786 8.31979C165.305 5.04704 163.69 1.3652 163.286 0.547017C163.286 0.410652 163.151 0.410652 163.017 0.410652H161.94C161.805 0.410652 161.67 0.547017 161.67 0.547017C161.132 1.7743 157.363 9.95616 156.286 12.4107C156.286 12.5471 156.286 12.5471 156.286 12.6834C156.286 12.8198 156.421 12.8198 156.555 12.8198H157.498C157.632 12.8198 157.901 12.6834 157.901 12.5471L159.113 9.8198H165.843L167.055 12.5471C167.189 12.6834 167.324 12.8198 167.459 12.8198H168.401C168.536 12.8198 168.536 12.8198 168.67 12.6834C168.67 12.5471 168.67 12.5471 168.67 12.4107C168.266 11.5925 167.593 10.0925 166.786 8.31979Z" fill="white"/>
    <path d="M188.719 8.31931H183.334L186.027 2.1829L188.719 8.31931ZM192.084 12.4103C191.68 11.5921 191.007 10.0921 190.199 8.31931C188.719 5.04656 187.103 1.36472 186.7 0.546529C186.7 0.410164 186.565 0.410164 186.43 0.410164H185.354C185.219 0.410164 185.084 0.546529 185.084 0.546529C184.546 1.77381 180.777 9.95569 179.7 12.4103C179.7 12.5466 179.7 12.5466 179.7 12.683C179.7 12.8193 179.835 12.8193 179.969 12.8193H180.911C181.046 12.8193 181.315 12.683 181.315 12.5466L182.527 9.81933H189.257L190.469 12.5466C190.603 12.683 190.738 12.8193 190.872 12.8193H191.815C191.949 12.8193 191.949 12.8193 192.084 12.683C192.219 12.5466 192.219 12.4103 192.084 12.4103Z" fill="white"/>
    <path d="M154.529 10.6364C154.529 10.6364 154.395 10.5001 154.395 10.3637C154.26 10.2273 154.125 10.091 154.125 10.091C153.991 9.9546 153.856 9.9546 153.856 9.9546C153.722 9.9546 153.722 9.9546 153.722 10.091C152.51 11.1819 151.433 11.591 149.953 11.591C147.26 11.591 145.241 9.40915 145.241 6.54549C145.241 3.68184 147.26 1.50001 149.953 1.50001C151.299 1.50001 152.376 1.9091 153.452 2.86365C153.587 3.00002 153.587 3.00002 153.722 3.00002C153.856 3.00002 153.991 3.00002 154.125 2.86365C154.125 2.72729 154.664 2.18183 154.664 2.04547C154.664 2.04547 154.799 1.9091 154.664 1.77274C154.664 1.77274 154.529 1.63637 154.395 1.50001C153.049 0.409093 151.703 0 149.953 0C146.318 0 143.626 2.86365 143.626 6.54549C143.626 10.2273 146.318 13.091 149.953 13.091C151.837 13.091 153.183 12.5455 154.664 11.1819L154.799 11.0455C154.799 10.9092 154.664 10.9092 154.529 10.6364Z" fill="white"/>
    <path d="M151.029 34.3639H149.145C149.01 34.3639 148.741 34.5003 148.741 34.6366C148.068 36.1366 144.972 43.2276 143.895 45.6821L143.626 46.2276C143.626 46.364 143.626 46.5003 143.626 46.6367C143.626 46.7731 143.761 46.7731 143.895 46.7731H146.318C146.453 46.7731 146.722 46.6367 146.722 46.5003L150.087 38.7276L153.452 46.5003C153.587 46.6367 153.722 46.7731 153.856 46.7731H156.145C156.279 46.7731 156.414 46.7731 156.414 46.6367C156.414 46.5003 156.548 46.364 156.414 46.2276C155.472 44.1821 151.972 36.273 151.299 34.6366C151.433 34.5003 151.299 34.3639 151.029 34.3639Z" fill="white"/>
    <path d="M194.106 34.3639H185.76C185.491 34.3639 185.356 34.5003 185.356 34.773C185.356 35.7275 185.356 38.7276 185.356 40.5003C185.356 42.5458 185.356 45.0003 185.356 46.2276C185.356 46.364 185.356 46.5003 185.491 46.5003C185.625 46.6367 185.625 46.6367 185.76 46.6367H194.106C194.375 46.6367 194.51 46.5003 194.51 46.2276V44.5912C194.51 44.3185 194.24 44.1821 194.106 44.1821H188.183V41.7276C188.721 41.7276 191.952 41.7276 193.029 41.7276C193.298 41.7276 193.433 41.5912 193.433 41.3185V39.6821C193.433 39.4094 193.298 39.273 193.029 39.273H188.183V36.9548H194.106C194.375 36.9548 194.51 36.6821 194.51 36.5457V34.9093C194.51 34.5003 194.375 34.3639 194.106 34.3639Z" fill="white"/>
    <path d="M202.047 39.2739C199.894 38.7284 199.355 38.4557 199.355 37.6375C199.355 36.9557 199.894 36.5466 200.836 36.5466C201.643 36.5466 202.72 36.9557 203.797 37.6375H203.932C204.066 37.6375 204.201 37.5012 204.336 37.3648C204.47 37.2284 204.874 36.683 205.143 36.2739C205.278 36.1375 205.413 36.0011 205.413 35.8648C205.547 35.7284 205.682 35.4557 205.413 35.3193C204.066 34.3648 202.586 33.8193 200.97 33.8193C198.413 33.8193 196.528 35.4557 196.528 37.6375C196.528 40.2284 198.413 40.9103 200.701 41.5921C202.855 42.1375 203.124 42.5466 203.124 43.0921C203.124 43.7739 202.451 44.183 201.374 44.183C200.297 44.183 199.086 43.7739 198.009 42.8194C197.74 42.683 197.471 42.683 197.336 42.9557C197.201 43.0921 196.798 43.6376 196.528 44.0467L196.125 44.5921C196.125 44.7285 195.99 44.7285 196.125 44.8648C196.125 45.0012 196.259 45.1376 196.528 45.2739C196.528 45.2739 196.663 45.4103 196.798 45.4103C198.144 46.3648 199.759 46.7739 201.374 46.7739C204.201 46.7739 206.086 45.2739 206.086 42.8194C206.086 40.7739 204.47 39.8193 202.047 39.2739Z" fill="white"/>
    <path d="M169.468 34.3636H167.584C167.315 34.3636 167.18 34.6364 167.18 34.7727V41.7273L161.661 34.5C161.527 34.3636 161.392 34.3636 161.257 34.3636H159.373C159.104 34.3636 158.969 34.6364 158.969 34.7727V46.3637C158.969 46.6364 159.104 46.7728 159.373 46.7728H161.257C161.527 46.7728 161.661 46.6364 161.661 46.3637C161.661 44.7273 161.661 40.2273 161.661 39.1364L167.315 46.6365C167.449 46.7728 167.584 46.7728 167.718 46.7728H169.468C169.738 46.7728 169.872 46.6364 169.872 46.3637V34.7727C169.872 34.5 169.738 34.3636 169.468 34.3636Z" fill="white"/>
    <path d="M177.408 44.1819H175.389V36.9546H177.408C179.428 36.9546 180.639 38.3182 180.639 40.6364C180.774 42.8182 179.562 44.1819 177.408 44.1819ZM177.408 34.3636H172.966C172.832 34.3636 172.697 34.3636 172.697 34.5C172.563 34.6364 172.562 34.6364 172.562 34.7727C172.562 35.1818 172.562 36 172.562 36.4091V44.591C172.562 45.0001 172.562 45.5455 172.562 45.9546V46.3637C172.562 46.6364 172.832 46.7728 172.966 46.7728H177.408C181.043 46.7728 183.6 44.1819 183.6 40.5C183.6 38.7273 183.062 37.2273 181.985 36.1364C180.908 34.9091 179.293 34.3636 177.408 34.3636Z" fill="white"/>
    <path d="M153.991 27.1357H148.202V17.8629C148.202 17.5902 147.933 17.4538 147.799 17.4538H145.78C145.51 17.4538 145.376 17.7265 145.376 17.8629V29.3175C145.376 29.5902 145.645 29.7266 145.78 29.7266H153.991C154.26 29.7266 154.394 29.4539 154.394 29.3175V27.5448C154.394 27.272 154.26 27.1357 153.991 27.1357Z" fill="white"/>
    <path d="M158.434 23.4553C158.434 21.2735 160.049 19.6371 162.069 19.6371C164.088 19.6371 165.703 21.2735 165.703 23.4553C165.703 25.6372 164.088 27.2736 162.069 27.2736C160.049 27.4099 158.434 25.7735 158.434 23.4553ZM162.069 17.0462C158.3 17.0462 155.338 19.9098 155.338 23.5917C155.338 27.2736 158.165 30.1372 162.069 30.1372C165.838 30.1372 168.799 27.2736 168.799 23.5917C168.799 19.7735 165.972 17.0462 162.069 17.0462Z" fill="white"/>
    <path d="M175.937 22.2271C173.784 21.6816 173.245 21.4089 173.245 20.5907C173.245 19.9089 173.784 19.4998 174.726 19.4998C175.533 19.4998 176.61 19.9089 177.687 20.5907H177.822C177.956 20.5907 178.091 20.4544 178.226 20.318C178.36 20.1816 178.629 19.7725 178.899 19.3634C179.033 19.0907 179.168 18.9543 179.168 18.818C179.303 18.6816 179.437 18.4089 179.168 18.2725C177.822 17.318 176.341 16.7725 174.726 16.7725C172.168 16.7725 170.284 18.4089 170.284 20.5907C170.284 23.1816 172.168 23.8635 174.457 24.5453C176.61 25.0907 176.88 25.4998 176.88 26.0453C176.88 26.7271 176.207 27.1362 175.13 27.1362C174.053 27.1362 172.841 26.7271 171.764 25.7726C171.495 25.6362 171.226 25.6362 171.091 25.9089C170.957 26.0453 170.553 26.5908 170.284 26.9999L169.88 27.5453C169.88 27.6817 169.745 27.6817 169.88 27.818C169.88 27.9544 170.149 28.0908 170.284 28.2271H170.418L170.553 28.3635C171.899 29.3181 173.514 29.7271 175.13 29.7271C177.956 29.7271 179.841 28.2271 179.841 25.7726C179.976 23.7271 178.36 22.9089 175.937 22.2271Z" fill="white"/>
    <path d="M130.03 46.9113H123.031C122.088 46.9113 121.281 46.0931 121.281 45.1385V38.0476C121.281 37.093 122.088 36.2748 123.031 36.2748H130.03C130.973 36.2748 131.78 37.093 131.78 38.0476V45.1385C131.78 46.0931 130.973 46.9113 130.03 46.9113Z" fill="#F9BE00"/>
    <path d="M145.644 53.864C144.567 53.864 143.894 54.5458 143.894 55.364C143.894 57.1367 146.451 57.0004 146.451 58.2276C146.451 58.9094 145.913 59.0458 145.374 59.0458C144.836 59.0458 144.432 58.9094 144.163 58.6367L143.894 59.1822C144.298 59.4549 144.836 59.5913 145.509 59.5913C146.586 59.5913 147.394 59.0458 147.394 57.9549C147.394 56.1822 144.836 56.3186 144.836 55.0913C144.836 54.5458 145.374 54.2731 145.778 54.2731C146.182 54.2731 146.721 54.4095 147.124 54.5458V53.864C146.721 54.0004 146.182 53.864 145.644 53.864Z" fill="white"/>
    <path d="M151.035 53.864C149.419 53.864 148.208 55.0913 148.208 56.864C148.208 58.6368 149.419 59.8641 151.035 59.8641C152.65 59.8641 153.862 58.6368 153.862 56.864C153.862 55.0913 152.785 53.864 151.035 53.864ZM151.035 59.1822C149.823 59.1822 149.016 58.2277 149.016 56.864C149.016 55.5004 149.823 54.5458 151.035 54.5458C152.381 54.5458 153.054 55.5004 153.054 56.864C153.054 58.2277 152.246 59.1822 151.035 59.1822Z" fill="white"/>
    <path d="M160.723 53.9999H160.05L158.569 56.3181C158.3 56.7272 158.165 56.9999 158.031 57.1363C157.896 56.8636 157.761 56.7272 157.492 56.3181L155.877 53.9999H155.204V59.8636H156.012V56.3181C156.012 56.0454 156.012 55.6363 156.012 55.4999C156.146 55.7727 156.281 55.909 156.415 56.1818L157.896 58.3636H158.3L159.646 56.1818C159.781 56.0454 159.915 55.7727 160.05 55.4999C160.05 55.7727 160.05 56.1818 160.05 56.4545V60H160.857V53.9999H160.723Z" fill="white"/>
    <path d="M164.759 53.864C163.144 53.864 161.932 55.0913 161.932 56.864C161.932 58.6368 163.144 59.8641 164.759 59.8641C166.374 59.8641 167.586 58.6368 167.586 56.864C167.586 55.0913 166.374 53.864 164.759 53.864ZM164.759 59.1822C163.548 59.1822 162.74 58.2277 162.74 56.864C162.74 55.5004 163.548 54.5458 164.759 54.5458C166.105 54.5458 166.778 55.5004 166.778 56.864C166.778 58.2277 165.971 59.1822 164.759 59.1822Z" fill="white"/>
    <path d="M170.421 53.864C169.344 53.864 168.671 54.5458 168.671 55.364C168.671 57.1367 171.229 57.0004 171.229 58.2276C171.229 58.9094 170.69 59.0458 170.152 59.0458C169.613 59.0458 169.21 58.9094 168.94 58.6367L168.671 59.1822C169.075 59.4549 169.613 59.5913 170.286 59.5913C171.363 59.5913 172.171 59.0458 172.171 57.9549C172.171 56.1822 169.613 56.3186 169.613 55.0913C169.613 54.5458 170.152 54.2731 170.556 54.2731C170.96 54.2731 171.498 54.4095 171.902 54.5458V53.864C171.498 54.0004 170.96 53.864 170.421 53.864Z" fill="white"/>
    <path d="M177.814 53.864C176.065 53.864 174.853 55.2277 174.853 56.8641C174.853 58.6369 175.93 59.7278 177.68 59.7278C178.218 59.7278 178.757 59.5914 179.43 59.3187L179.161 58.6369C178.757 58.9096 178.353 59.046 177.814 59.046C176.603 59.046 175.795 58.0914 175.795 56.7277C175.795 55.5004 176.603 54.4095 177.949 54.4095C178.487 54.4095 179.026 54.5459 179.43 54.8186V54.1368C179.026 54.0004 178.487 53.864 177.814 53.864Z" fill="white"/>
    <path d="M183.07 53.864C181.32 53.864 180.108 55.2277 180.108 56.8641C180.108 58.6369 181.185 59.7278 182.935 59.7278C183.473 59.7278 184.012 59.5914 184.685 59.3187L184.416 58.6369C184.012 58.9096 183.608 59.046 183.07 59.046C181.858 59.046 181.05 58.0914 181.05 56.7277C181.05 55.5004 181.858 54.4095 183.204 54.4095C183.743 54.4095 184.281 54.5459 184.685 54.8186V54.1368C184.281 54.0004 183.743 53.864 183.07 53.864Z" fill="white"/>
    <path d="M186.439 53.5908H185.631V59.8637H186.439V56.8636C186.842 56.5909 187.246 56.3181 187.65 56.3181C188.188 56.3181 188.323 56.7272 188.323 57.4091V60H189.131V57.1363C189.131 56.0454 188.458 55.6363 187.919 55.6363C187.381 55.6363 186.977 55.909 186.439 56.1818V53.5908Z" fill="white"/>
    <path d="M193.029 53.864C191.28 53.864 190.068 55.2277 190.068 56.8641C190.068 58.6369 191.145 59.7278 192.895 59.7278C193.433 59.7278 193.972 59.5914 194.645 59.3187L194.376 58.6369C193.972 58.9096 193.568 59.046 193.029 59.046C191.818 59.046 191.01 58.0914 191.01 56.7277C191.01 55.5004 191.818 54.4095 193.164 54.4095C193.703 54.4095 194.241 54.5459 194.645 54.8186V54.1368C194.106 54.0004 193.568 53.864 193.029 53.864Z" fill="white"/>
</svg>

<svg width="207" height="60" fill="none" xmlns="http://www.w3.org/2000/svg"><path d="M115.225 36.41h-12.249c-4.577 0-8.885-1.91-11.711-4.91-3.096-3-21-30.41-21-30.41-.269-.408-.807-.68-1.346-.68H60.17c-.673 0-1.212.272-1.48.817-1.078 1.5-20.461 27.819-23.423 30.682-2.961 3-7.134 4.91-11.71 4.91-7.27 0-13.057-5.864-13.057-13.228 0-6.682 5.115-12.273 11.576-13.09.807-.137 1.48-.82 1.48-1.637V1.773C23.556.818 22.75 0 21.806 0 9.558.955 0 11.182 0 23.591c0 13.091 10.5 23.727 23.556 23.727 7.539 0 14.807-3.136 19.115-7.909 3.769-4.09 16.96-21.818 20.73-27 .269-.273.538-.682.942-.682.404 0 .807.41 1.077.682 3.365 5.182 14.403 22.364 18.172 26.455 4.442 4.773 11.576 7.909 19.114 7.909h12.384c.943 0 1.75-.818 1.75-1.773v-6.818c.135-.955-.673-1.773-1.615-1.773zM177.418.273h-.942c-.135 0-.27.137-.27.273v8.318c-.134 1.636-.942 2.727-2.422 2.727-1.077 0-1.616-.272-2.423-1.227l-.135-.136-.269-.273c-.135 0-.135 0-.269.136-.135 0-.539.41-.674.546-.134.136-.134.136-.134.273 0 0 0 .136.134.136.943 1.364 2.154 2.046 3.77 2.046 1.076 0 2.019-.41 2.826-1.091.808-.819 1.212-1.91 1.212-3.273V.682c-.135-.272-.269-.409-.404-.409zM165.17 8.32h-5.384l2.692-6.137 2.692 6.137zm1.616 0c-1.481-3.273-3.096-6.955-3.5-7.773 0-.136-.135-.136-.269-.136h-1.077c-.135 0-.27.136-.27.136-.538 1.227-4.307 9.41-5.384 11.864v.272c0 .137.135.137.269.137h.943c.134 0 .403-.137.403-.273l1.212-2.727h6.73l1.212 2.727c.134.136.269.273.404.273h.942c.135 0 .135 0 .269-.137v-.272c-.404-.819-1.077-2.319-1.884-4.091zm21.933 0h-5.385l2.693-6.137 2.692 6.136zm3.365 4.09c-.404-.818-1.077-2.318-1.885-4.09-1.48-3.273-3.096-6.955-3.499-7.773 0-.137-.135-.137-.27-.137h-1.076c-.135 0-.27.137-.27.137-.538 1.227-4.307 9.409-5.384 11.863v.273c0 .136.135.136.269.136h.942c.135 0 .404-.136.404-.272l1.212-2.728h6.73l1.212 2.728c.134.136.269.272.403.272h.943c.134 0 .134 0 .269-.136s.135-.273 0-.273zm-37.555-1.774s-.134-.136-.134-.272l-.27-.273c-.134-.136-.269-.136-.269-.136-.134 0-.134 0-.134.136-1.212 1.09-2.289 1.5-3.769 1.5-2.693 0-4.712-2.182-4.712-5.046 0-2.863 2.019-5.045 4.712-5.045 1.346 0 2.423.41 3.499 1.364.135.136.135.136.27.136.134 0 .269 0 .403-.136 0-.137.539-.682.539-.819 0 0 .135-.136 0-.272l-.269-.273C153.049.41 151.703 0 149.953 0c-3.635 0-6.327 2.864-6.327 6.545 0 3.682 2.692 6.546 6.327 6.546 1.884 0 3.23-.545 4.711-1.91l.135-.135c0-.137-.135-.137-.27-.41zm-3.5 23.728h-1.884c-.135 0-.404.136-.404.273-.673 1.5-3.769 8.59-4.846 11.045l-.269.545v.41c0 .136.135.136.269.136h2.423c.135 0 .404-.136.404-.273l3.365-7.773 3.365 7.773c.135.137.27.273.404.273h2.289c.134 0 .269 0 .269-.136 0-.137.134-.273 0-.41-.942-2.045-4.442-9.954-5.115-11.59.134-.137 0-.273-.27-.273zm43.077 0h-8.346c-.269 0-.404.136-.404.409v11.454c0 .137 0 .273.135.273.134.137.134.137.269.137h8.346c.269 0 .404-.137.404-.41v-1.636c0-.273-.27-.409-.404-.409h-5.923v-2.455h4.846c.269 0 .404-.136.404-.409v-1.636c0-.273-.135-.41-.404-.41h-4.846v-2.317h5.923c.269 0 .404-.273.404-.41V34.91c0-.409-.135-.545-.404-.545zm7.941 4.91c-2.153-.546-2.692-.818-2.692-1.636 0-.682.539-1.091 1.481-1.091.807 0 1.884.409 2.961 1.09h.135c.134 0 .269-.136.404-.272.134-.137.538-.682.807-1.091.135-.136.27-.273.27-.41.134-.136.269-.408 0-.545-1.347-.954-2.827-1.5-4.443-1.5-2.557 0-4.442 1.637-4.442 3.819 0 2.59 1.885 3.272 4.173 3.954 2.154.546 2.423.955 2.423 1.5 0 .682-.673 1.091-1.75 1.091s-2.288-.409-3.365-1.364c-.269-.136-.538-.136-.673.137-.135.136-.538.682-.808 1.09l-.403.546c0 .136-.135.136 0 .273 0 .136.134.273.403.409 0 0 .135.136.27.136 1.346.955 2.961 1.364 4.576 1.364 2.827 0 4.712-1.5 4.712-3.955 0-2.045-1.616-3-4.039-3.545zm-32.579-4.91h-1.884c-.269 0-.404.272-.404.409v6.954l-5.519-7.227c-.134-.136-.269-.136-.404-.136h-1.884c-.269 0-.404.272-.404.409v11.59c0 .273.135.41.404.41h1.884c.27 0 .404-.137.404-.41v-7.227l5.654 7.5c.134.137.269.137.403.137h1.75c.27 0 .404-.137.404-.41v-11.59c0-.273-.134-.41-.404-.41zm7.94 9.818h-2.019v-7.227h2.019c2.02 0 3.231 1.363 3.231 3.681.135 2.182-1.077 3.546-3.231 3.546zm0-9.819h-4.442c-.134 0-.269 0-.269.137-.134.136-.135.136-.135.273v11.591c0 .272.27.409.404.409h4.442c3.635 0 6.192-2.591 6.192-6.273 0-1.773-.538-3.273-1.615-4.364-1.077-1.227-2.692-1.773-4.577-1.773zm-23.417-7.227h-5.789v-9.273c0-.273-.269-.41-.403-.41h-2.019c-.27 0-.404.274-.404.41v11.455c0 .272.269.409.404.409h8.211c.269 0 .403-.273.403-.41v-1.772c0-.273-.134-.41-.403-.41zm4.443-3.681c0-2.181 1.615-3.818 3.635-3.818 2.019 0 3.634 1.636 3.634 3.818 0 2.182-1.615 3.819-3.634 3.819-2.02.136-3.635-1.5-3.635-3.819zm3.635-6.409c-3.769 0-6.731 2.864-6.731 6.546 0 3.681 2.827 6.545 6.731 6.545 3.769 0 6.73-2.864 6.73-6.545 0-3.819-2.827-6.546-6.73-6.546zm13.868 5.181c-2.153-.545-2.692-.818-2.692-1.636 0-.682.539-1.091 1.481-1.091.807 0 1.884.409 2.961 1.09h.135c.134 0 .269-.136.404-.272.134-.136.403-.546.673-.955.134-.272.269-.409.269-.545.135-.136.269-.41 0-.546-1.346-.954-2.827-1.5-4.442-1.5-2.558 0-4.442 1.637-4.442 3.819 0 2.59 1.884 3.272 4.173 3.954 2.153.546 2.423.955 2.423 1.5 0 .682-.673 1.091-1.75 1.091s-2.289-.409-3.366-1.363c-.269-.137-.538-.137-.673.136-.134.136-.538.682-.807 1.09l-.404.546c0 .137-.135.137 0 .273 0 .136.269.273.404.41h.134l.135.135c1.346.955 2.961 1.364 4.577 1.364 2.826 0 4.711-1.5 4.711-3.954.135-2.046-1.481-2.864-3.904-3.546z" fill="#fff"/><path d="M130.03 46.911h-6.999c-.943 0-1.75-.818-1.75-1.772v-7.091c0-.955.807-1.773 1.75-1.773h6.999c.943 0 1.75.818 1.75 1.773v7.09c0 .955-.807 1.773-1.75 1.773z" fill="#F9BE00"/><path d="M145.644 53.864c-1.077 0-1.75.682-1.75 1.5 0 1.773 2.557 1.636 2.557 2.864 0 .681-.538.818-1.077.818-.538 0-.942-.137-1.211-.41l-.269.546c.404.273.942.41 1.615.41 1.077 0 1.885-.546 1.885-1.637 0-1.773-2.558-1.636-2.558-2.864 0-.545.538-.818.942-.818.404 0 .943.136 1.346.273v-.682c-.403.136-.942 0-1.48 0zm5.391 0c-1.616 0-2.827 1.227-2.827 3s1.211 3 2.827 3c1.615 0 2.827-1.227 2.827-3s-1.077-3-2.827-3zm0 5.318c-1.212 0-2.019-.954-2.019-2.318s.807-2.318 2.019-2.318c1.346 0 2.019.954 2.019 2.318s-.808 2.318-2.019 2.318zM160.723 54h-.673l-1.481 2.318c-.269.41-.404.682-.538.818-.135-.272-.27-.409-.539-.818L155.877 54h-.673v5.864h.808V55.5c.134.273.269.41.403.682l1.481 2.182h.404l1.346-2.182c.135-.137.269-.41.404-.682V60h.807v-6h-.134zm4.036-.136c-1.615 0-2.827 1.227-2.827 3s1.212 3 2.827 3 2.827-1.227 2.827-3-1.212-3-2.827-3zm0 5.318c-1.211 0-2.019-.954-2.019-2.318s.808-2.318 2.019-2.318c1.346 0 2.019.954 2.019 2.318s-.807 2.318-2.019 2.318zm5.662-5.318c-1.077 0-1.75.682-1.75 1.5 0 1.773 2.558 1.636 2.558 2.864 0 .681-.539.818-1.077.818-.539 0-.942-.137-1.212-.41l-.269.546c.404.273.942.41 1.615.41 1.077 0 1.885-.546 1.885-1.637 0-1.773-2.558-1.636-2.558-2.864 0-.545.539-.818.943-.818.404 0 .942.136 1.346.273v-.682c-.404.136-.942 0-1.481 0zm7.393 0c-1.749 0-2.961 1.364-2.961 3 0 1.773 1.077 2.864 2.827 2.864.538 0 1.077-.137 1.75-.41l-.269-.681a2.253 2.253 0 01-1.347.409c-1.211 0-2.019-.955-2.019-2.318 0-1.228.808-2.319 2.154-2.319.538 0 1.077.137 1.481.41v-.682a4.97 4.97 0 00-1.616-.273zm5.256 0c-1.75 0-2.962 1.364-2.962 3 0 1.773 1.077 2.864 2.827 2.864.538 0 1.077-.137 1.75-.41l-.269-.681a2.253 2.253 0 01-1.346.409c-1.212 0-2.02-.955-2.02-2.318 0-1.228.808-2.319 2.154-2.319.539 0 1.077.137 1.481.41v-.682a4.963 4.963 0 00-1.615-.273zm3.369-.274h-.808v6.274h.808v-3c.403-.273.807-.546 1.211-.546.538 0 .673.41.673 1.091V60h.808v-2.864c0-1.09-.673-1.5-1.212-1.5-.538 0-.942.273-1.48.546V53.59zm6.59.274c-1.749 0-2.961 1.364-2.961 3 0 1.773 1.077 2.864 2.827 2.864.538 0 1.077-.137 1.75-.41l-.269-.681a2.253 2.253 0 01-1.347.409c-1.211 0-2.019-.955-2.019-2.318 0-1.228.808-2.319 2.154-2.319.539 0 1.077.137 1.481.41v-.682c-.539-.137-1.077-.273-1.616-.273z" fill="#fff"/></svg>
